svg/Outline/settings.svg

<svg viewBox="0 0 24 24" xmlns="http://www.w3.org/2000/svg" width="24" height="24"><path fill-rule="evenodd" d="M12 8.6a3.4 3.4 0 1 1 0 6.8 3.4 3.4 0 0 1 0-6.8m0 1.8a1.6 1.6 0 1 0 0 3.2 1.6 1.6 0 0 0 0-3.2" clip-rule="evenodd"/><path fill-rule="evenodd" d="M15.49 1.6c.17.01.35.08.7.23q1.36.57 2.52 1.46c.3.23.46.35.55.5.12.18.13.19.15.41.02.17-.1.7-.33 1.77l-.03.22a2.5 2.5 0 0 0 1.72 2.7c1.04.32 1.56.49 1.7.59.17.14.18.14.28.34.08.16.1.35.15.73q.1.71.1 1.45v.37q-.03.55-.1 1.08l-.06.45q-.03.16-.09.27l-.06.12c-.06.1-.1.13-.23.23l-.07.04c-.2.1-.71.27-1.62.56l-.21.08q-.75.3-1.2 1.05l-.1.21c-.24.5-.29 1.06-.18 1.57.24 1.06.35 1.6.33 1.77l-.02.13c-.01.1-.04.14-.13.29l-.08.1q-.14.14-.47.4l-.29.2q-1.04.75-2.23 1.25l-.42.17-.28.06h-.14q-.09 0-.18-.03l-.12-.05a2 2 0 0 1-.44-.33l-.93-.84a2.5 2.5 0 0 0-1.44-.64H12a2.5 2.5 0 0 0-1.68.64l-.93.84q-.32.29-.44.33l-.12.05-.18.03H8.5q-.12 0-.28-.06l-.42-.17q-1.2-.5-2.23-1.24l-.3-.22q-.32-.24-.46-.39l-.08-.1c-.1-.15-.12-.18-.13-.29l-.02-.13q-.02-.12.07-.55l.26-1.22a2.5 2.5 0 0 0-1.48-2.83l-.2-.08c-.92-.3-1.43-.45-1.63-.56l-.07-.04c-.14-.1-.18-.13-.23-.23l-.06-.12-.09-.27-.06-.45q-.07-.53-.1-1.08V12q0-.56.05-1.1l.05-.36c.05-.37.07-.56.15-.72.1-.2.1-.2.29-.34q.1-.07.5-.21l1.2-.39c.5-.16.95-.47 1.27-.93l.13-.2q.42-.77.32-1.56l-.04-.22c-.24-1.07-.35-1.6-.33-1.77a.7.7 0 0 1 .15-.42q.06-.1.2-.21l.35-.28q1-.78 2.18-1.31l.34-.15c.35-.15.53-.22.7-.23a.7.7 0 0 1 .44.08c.16.07.56.43 1.37 1.17q.59.54 1.43.64l.25.01q.88-.02 1.51-.5l.17-.15c.8-.74 1.2-1.1 1.36-1.17a.7.7 0 0 1 .45-.08m-.6 2.58A4.3 4.3 0 0 1 12 5.3h-.09l-.25-.02h-.1c-.94-.1-1.8-.5-2.46-1.1l-.7-.64q-1.05.44-1.93 1.1l.2.94c.21.95.1 1.97-.37 2.89l-.1.18a4.3 4.3 0 0 1-2.42 1.95l-.91.29a9 9 0 0 0 0 2.22l.9.3c1 .3 1.87.97 2.43 1.94l.1.18c.47.92.58 1.94.37 2.89l-.2.93q.9.68 1.92 1.11l.71-.64A4.3 4.3 0 0 1 12 18.7h.2c1.04.05 1.98.47 2.7 1.12l.7.64q1.05-.45 1.93-1.11l-.2-.93a4.3 4.3 0 0 1 .47-3.07l.11-.18a4.3 4.3 0 0 1 2.31-1.77l.91-.3q.07-.54.07-1.1v-.3q-.02-.42-.07-.8l-.9-.3c-.93-.3-1.76-.9-2.32-1.77l-.1-.18a4.3 4.3 0 0 1-.48-3.07l.2-.93a9 9 0 0 0-1.93-1.11z" clip-rule="evenodd"/></svg>

<svg viewBox="0 0 24 24" xmlns="http://www.w3.org/2000/svg" width="24" height="24"><path fill-rule="evenodd" d="M12 8.6a3.4 3.4 0 1 1 0 6.8 3.4 3.4 0 0 1 0-6.8m0 1.8a1.6 1.6 0 1 0 0 3.2 1.6 1.6 0 0 0 0-3.2" clip-rule="evenodd"/><path fill-rule="evenodd" d="M15.49 1.6C15.66 1.61 15.84 1.68 16.19 1.83Q17.55 2.4 18.71 3.29C19.01 3.52 19.17 3.64 19.26 3.79C19.38 3.97 19.39 3.98 19.41 4.2C19.43 4.37 19.31 4.9 19.08 5.97L19.05 6.19A2.5 2.5 0 0 0 20.77 8.89C21.81 9.21 22.33 9.38 22.47 9.48C22.64 9.62 22.65 9.62 22.75 9.82C22.83 9.98 22.85 10.17 22.9 10.55Q23 11.26 23 12L23 12.37Q22.97 12.92 22.9 13.45L22.84 13.9Q22.81 14.06 22.75 14.17L22.69 14.29C22.63 14.39 22.59 14.42 22.46 14.52L22.39 14.56C22.19 14.66 21.68 14.83 20.77 15.12L20.56 15.2Q19.81 15.5 19.36 16.25L19.26 16.46C19.02 16.96 18.97 17.52 19.08 18.03C19.32 19.09 19.43 19.63 19.41 19.8L19.39 19.93C19.38 20.03 19.35 20.07 19.26 20.22L19.18 20.32Q19.04 20.46 18.71 20.72L18.42 20.92Q17.38 21.67 16.19 22.17L15.77 22.34L15.35 22.4Q15.26 22.4 15.17 22.37L15.05 22.32A2 2 0 0 1 14.61 21.99L13.68 21.15A2.5 2.5 0 0 0 12.24 20.51L12 20.51A2.5 2.5 0 0 0 10.32 21.15L9.39 21.99Q9.07 22.28 8.95 22.32L8.65 22.4L8.5 22.4Q8.38 22.4 8.22 22.34L7.8 22.17Q6.6 21.67 5.57 20.93L5.27 20.71Q4.95 20.47 4.81 20.32L4.73 20.22C4.63 20.07 4.61 20.04 4.6 19.93L4.58 19.8Q4.56 19.68 4.65 19.25L4.91 18.03A2.5 2.5 0 0 0 3.43 15.2L3.23 15.12C2.31 14.82 1.8 14.67 1.6 14.56L1.53 14.52C1.39 14.42 1.35 14.39 1.3 14.29L1.15 13.9L1.09 13.45Q1.02 12.92 .99 12.37L.99 12Q.99 11.44 1.04 10.9L1.09 10.54C1.14 10.17 1.16 9.98 1.24 9.82C1.34 9.62 1.34 9.62 1.53 9.48Q1.63 9.41 2.03 9.27L3.23 8.88C3.73 8.72 4.18 8.41 4.5 7.95L4.63 7.75Q5.05 6.98 4.95 6.19L4.91 5.97C4.67 4.9 4.56 4.37 4.58 4.2A.7 .7 0 0 1 4.73 3.78Q4.79 3.68 4.93 3.57L5.28 3.29Q6.28 2.51 7.46 1.98L7.8 1.83C8.15 1.68 8.33 1.61 8.5 1.6A.7 .7 0 0 1 8.94 1.68C9.1 1.75 9.5 2.11 10.31 2.85Q10.9 3.39 11.74 3.49L11.99 3.5Q12.87 3.48 13.5 3L13.67 2.85C14.47 2.11 14.87 1.75 15.03 1.68A.7 .7 0 0 1 15.48 1.6M14.88 4.18A4.3 4.3 0 0 1 12 5.3L11.56 5.28C10.62 5.18 9.76 4.78 9.1 4.18L8.4 3.54Q7.35 3.98 6.47 4.64L6.67 5.58C6.88 6.53 6.77 7.55 6.3 8.47L6.2 8.65A4.3 4.3 0 0 1 3.78 10.6L2.87 10.89A9 9 0 0 0 2.87 13.11L3.77 13.41C4.77 13.71 5.64 14.38 6.2 15.35L6.3 15.53C6.77 16.45 6.88 17.47 6.67 18.42L6.47 19.35Q7.37 20.03 8.39 20.46L9.1 19.82A4.3 4.3 0 0 1 12 18.7L12.2 18.7C13.24 18.75 14.18 19.17 14.9 19.82L15.6 20.46Q16.65 20.01 17.53 19.35L17.33 18.42A4.3 4.3 0 0 1 17.8 15.35L17.91 15.17A4.3 4.3 0 0 1 20.22 13.4L21.13 13.1Q21.2 12.56 21.2 12L21.2 11.7Q21.18 11.28 21.13 10.9L20.23 10.6C19.3 10.3 18.47 9.7 17.91 8.83L17.81 8.65A4.3 4.3 0 0 1 17.33 5.58L17.53 4.65A9 9 0 0 0 15.6 3.54Z" clip-rule="evenodd"/></svg>
